;FLAVOR:Marlin
;TIME:4304
;Filament used: 2.87092m
;Layer height: 0.2
;MINX:65
;MINY:84
;MINZ:0.2
;MAXX:155
;MAXY:136
;MAXZ:30
;Generated with Cura_SteamEngine 4.13.1
M140 S55
M105
M190 S55
M104 S205
M105
M109 S205
M82 ;absolute extrusion mode
; Ender 3 Custom Start G-code
G92 E0 ; Reset Extruder
G28 ; Home all axes
G1 Z2.0 F3000 ; Move Z Axis up little to prevent scratching of Heat Bed
G1 X0.1 Y20 Z0.3 F5000.0 ; Move to start position
G1 X0.1 Y200.0 Z0.3 F1500.0 E15 ; Draw the first line
G1 X0.4 Y200.0 Z0.3 F5000.0 ; Move to side a little
G1 X0.4 Y20 Z0.3 F1500.0 E30 ; Draw the second line
G92 E0 ; Reset Extruder
G1 Z2.0 F3000 ; Move Z Axis up little to prevent scratching of Heat Bed
G1 X5 Y20 Z0.3 F5000.0 ; Move over to prevent blob squish
G92 E0
G92 E0
G1 F1500 E-6.5
;LAYER_COUNT:150
;LAYER:0
M107
G0 F6000 X68.886 Y86.627 Z0.2
;TYPE:SKIRT
G1 F1500 E0
G1 F1200 X69.626 Y86.051 E0.03119
G1 X70.412 Y85.539 E0.06239
G1 X71.239 Y85.097 E0.09358
G1 X72.101 Y84.727 E0.12478
G1 X72.991 Y84.431 E0.15597
G1 X73.903 Y84.213 E0.18716
G1 X74.83 Y84.072 E0.21835
G1 X75.701 Y84.013 E0.24738
G1 X76.022 Y84.004 E0.25806
G1 X76.33 Y84 E0.26831
G1 X143.293 Y84 E2.49551
G1 X144.149 Y84.011 E2.52398
G1 X145.085 Y84.065 E2.55516
G1 X146.013 Y84.197 E2.58634
G1 X146.927 Y84.409 E2.61755
G1 X147.819 Y84.698 E2.64873
G1 X148.684 Y85.061 E2.67993
G1 X149.514 Y85.497 E2.71112
G1 X150.305 Y86.002 E2.74233
G1 X151.049 Y86.573 E2.77352
G1 X151.742 Y87.205 E2.80472
G1 X152.379 Y87.893 E2.8359
G1 X152.954 Y88.634 E2.8671
G1 X153.465 Y89.42 E2.89828
G1 X153.907 Y90.248 E2.9295
G1 X154.276 Y91.11 E2.96068
G1 X154.571 Y92 E2.99187
G1 X154.789 Y92.912 E3.02306
G1 X154.929 Y93.84 E3.05427
G1 X154.987 Y94.701 E3.08297
G1 X154.996 Y95.021 E3.09362
G1 X155 Y95.33 E3.1039
G1 X154.999 Y124.4 E4.07077
G1 X154.99 Y125.127 E4.09495
G1 X154.939 Y126.064 E4.12617
G1 X154.807 Y126.992 E4.15734
G1 X154.598 Y127.906 E4.18853
G1 X154.311 Y128.799 E4.21972
G1 X153.949 Y129.665 E4.25094
G1 X153.515 Y130.496 E4.28212
G1 X153.011 Y131.287 E4.31332
G1 X152.442 Y132.032 E4.3445
G1 X151.811 Y132.727 E4.37572
G1 X151.124 Y133.365 E4.4069
G1 X150.385 Y133.942 E4.43809
G1 X149.599 Y134.454 E4.46929
G1 X148.773 Y134.897 E4.50046
G1 X147.911 Y135.269 E4.53169
G1 X147.022 Y135.565 E4.56285
G1 X146.11 Y135.785 E4.59405
G1 X145.183 Y135.926 E4.62524
G1 X144.299 Y135.987 E4.65471
G1 X143.978 Y135.996 E4.66539
G1 X143.67 Y136 E4.67564
G1 X76.565 Y135.999 E6.90756
G1 X75.867 Y135.99 E6.93078
G1 X74.931 Y135.938 E6.96196
G1 X74.002 Y135.806 E6.99317
G1 X73.088 Y135.596 E7.02436
G1 X72.195 Y135.309 E7.05556
G1 X71.33 Y134.946 E7.08676
G1 X70.499 Y134.512 E7.11794
G1 X69.708 Y134.008 E7.14913
G1 X68.963 Y133.438 E7.18033
G1 X68.269 Y132.807 E7.21153
G1 X67.632 Y132.12 E7.24269
G1 X67.055 Y131.38 E7.2739
G1 X66.543 Y130.594 E7.3051
G1 X66.1 Y129.767 E7.3363
G1 X65.729 Y128.906 E7.36749
G1 X65.433 Y128.016 E7.39868
G1 X65.214 Y127.104 E7.42988
G1 X65.073 Y126.177 E7.46106
G1 X65.013 Y125.288 E7.4907
G1 X65.004 Y124.955 E7.50178
G1 X65 Y124.658 E7.51166
G1 X65.001 Y95.525 E8.48063
G1 X65.01 Y94.86 E8.50275
G1 X65.063 Y93.924 E8.53393
G1 X65.195 Y92.995 E8.56514
G1 X65.406 Y92.081 E8.59634
G1 X65.694 Y91.189 E8.62751
G1 X66.057 Y90.324 E8.65871
G1 X66.492 Y89.493 E8.68991
G1 X66.996 Y88.703 E8.72108
G1 X67.566 Y87.958 E8.75228
G1 X68.198 Y87.264 E8.7835
G1 X68.886 Y86.627 E8.81468
G0 F6000 X69.274 Y86.823
G1 F1200 X70.01 Y86.27 E8.8453
G1 X70.791 Y85.782 E8.87593
G1 X71.611 Y85.364 E8.90654
G1 X72.465 Y85.019 E8.93718
G1 X73.345 Y84.749 E8.96779
G1 X74.245 Y84.557 E8.9984
G1 X75.159 Y84.443 E9.02904
G1 X75.712 Y84.413 E9.04746
G1 X76.033 Y84.404 E9.05814
G1 X76.33 Y84.4 E9.06802
G1 X143.293 Y84.4 E11.29521
G1 X144.143 Y84.411 E11.32349
G1 X145.062 Y84.464 E11.3541
G1 X145.973 Y84.597 E11.38473
G1 X146.869 Y84.808 E11.41534
G1 X147.743 Y85.096 E11.44595
G1 X148.59 Y85.459 E11.4766
G1 X149.401 Y85.894 E11.50721
G1 X150.171 Y86.398 E11.53782
G1 X150.895 Y86.967 E11.56844
G1 X151.567 Y87.597 E11.59908
G1 X152.182 Y88.282 E11.6297
G1 X152.735 Y89.018 E11.66032
G1 X153.222 Y89.799 E11.69093
G1 X153.639 Y90.62 E11.72156
G1 X153.984 Y91.474 E11.75219
G1 X154.253 Y92.354 E11.7828
G1 X154.445 Y93.255 E11.81344
G1 X154.558 Y94.168 E11.84404
G1 X154.587 Y94.712 E11.86216
G1 X154.596 Y95.032 E11.8728
G1 X154.6 Y95.33 E11.88272
G1 X154.599 Y124.395 E12.84942
G1 X154.59 Y125.122 E12.8736
G1 X154.539 Y126.041 E12.90422
G1 X154.408 Y126.953 E12.93486
G1 X154.198 Y127.849 E12.96547
G1 X153.912 Y128.724 E12.99609
G1 X153.551 Y129.571 E13.02671
G1 X153.117 Y130.383 E13.05733
G1 X152.615 Y131.155 E13.08796
G1 X152.047 Y131.88 E13.11859
G1 X151.419 Y132.553 E13.14921
G1 X150.735 Y133.169 E13.17983
G1 X150 Y133.723 E13.21044
G1 X149.22 Y134.212 E13.24106
G1 X148.4 Y134.631 E13.27169
G1 X147.547 Y134.977 E13.3023
G1 X146.667 Y135.248 E13.33293
G1 X145.767 Y135.441 E13.36354
G1 X144.853 Y135.556 E13.39418
G1 X144.288 Y135.587 E13.413
G1 X143.967 Y135.596 E13.42368
G1 X143.67 Y135.6 E13.43356
G1 X76.57 Y135.599 E15.66532
G1 X75.872 Y135.59 E15.68853
G1 X74.953 Y135.538 E15.71915
G1 X74.042 Y135.407 E15.74976
G1 X73.146 Y135.197 E15.78037
G1 X72.271 Y134.91 E15.811
G1 X71.424 Y134.548 E15.84163
G1 X70.612 Y134.114 E15.87226
G1 X69.841 Y133.612 E15.90286
G1 X69.116 Y133.044 E15.93349
G1 X68.443 Y132.415 E15.96413
G1 X67.828 Y131.731 E15.99472
G1 X67.274 Y130.996 E16.02533
G1 X66.786 Y130.215 E16.05596
G1 X66.367 Y129.395 E16.08659
G1 X66.021 Y128.542 E16.11721
G1 X65.751 Y127.662 E16.14782
G1 X65.558 Y126.761 E16.17847
G1 X65.444 Y125.848 E16.20907
G1 X65.413 Y125.277 E16.22809
G1 X65.404 Y124.944 E16.23917
G1 X65.4 Y124.658 E16.24869
G1 X65.401 Y95.531 E17.21745
G1 X65.41 Y94.866 E17.23957
G1 X65.462 Y93.946 E17.27022
G1 X65.594 Y93.035 E17.30084
G1 X65.805 Y92.139 E17.33145
G1 X66.092 Y91.264 E17.36208
G1 X66.455 Y90.418 E17.3927
G1 X66.889 Y89.606 E17.42332
G1 X67.392 Y88.835 E17.45394
G1 X67.961 Y88.111 E17.48457
G1 X68.589 Y87.439 E17.51516
G1 X69.274 Y86.823 E17.5458
G0 F6000 X69.662 Y87.024
G1 F1200 X70.394 Y86.494 E17.57586
G1 X71.169 Y86.031 E17.60589
G1 X71.982 Y85.638 E17.63592
G1 X72.827 Y85.318 E17.66597
G1 X73.696 Y85.075 E17.69598
G1 X74.584 Y84.909 E17.72603
G1 X75.723 Y84.813 E17.76405
G1 X76.044 Y84.804 E17.77473
G1 X76.33 Y84.8 E17.78424
G1 X143.293 Y84.8 E20.01144
G1 X144.137 Y84.811 E20.03952
G1 X145.039 Y84.864 E20.06957
G1 X145.932 Y84.996 E20.09959
G1 X146.81 Y85.207 E20.12963
G1 X147.666 Y85.495 E20.15966
G1 X148.493 Y85.857 E20.18969
G1 X149.285 Y86.292 E20.21974
G1 X150.036 Y86.794 E20.24979
G1 X150.739 Y87.361 E20.27983
G1 X151.389 Y87.988 E20.30987
G1 X151.981 Y88.67 E20.3399
G1 X152.511 Y89.401 E20.36993
G1 X152.973 Y90.177 E20.39997
G1 X153.366 Y90.99 E20.43001
G1 X153.684 Y91.835 E20.46004
G1 X153.927 Y92.705 E20.49008
G1 X154.092 Y93.593 E20.52012
G1 X154.187 Y94.723 E20.55784
G1 X154.196 Y95.043 E20.56848
G1 X154.2 Y95.33 E20.57803
G1 X154.199 Y124.39 E21.54457
G1 X154.19 Y125.117 E21.56875
G1 X154.139 Y126.019 E21.5988
G1 X154.008 Y126.913 E21.62885
G1 X153.799 Y127.791 E21.65887
G1 X153.513 Y128.648 E21.68892
G1 X153.152 Y129.476 E21.71896
G1 X152.72 Y130.268 E21.74897
G1 X152.219 Y131.02 E21.77902
G1 X151.653 Y131.724 E21.80907
G1 X151.028 Y132.375 E21.83908
G1 X150.347 Y132.969 E21.86914
G1 X149.616 Y133.5 E21.89919
G1 X148.842 Y133.964 E21.9292
G1 X148.029 Y134.358 E21.95925
G1 X147.185 Y134.678 E21.98927
G1 X146.315 Y134.923 E22.01934
G1 X145.428 Y135.089 E22.04935
G1 X144.277 Y135.187 E22.08777
G1 X143.956 Y135.196 E22.09845
G1 X143.67 Y135.2 E22.10797
G1 X76.575 Y135.199 E24.33955
G1 X75.877 Y135.19 E24.36277
G1 X74.976 Y135.139 E24.39279
G1 X74.082 Y135.007 E24.42284
G1 X73.204 Y134.798 E24.45286
G1 X72.347 Y134.511 E24.48292
G1 X71.52 Y134.15 E24.51293
G1 X70.727 Y133.717 E24.54299
G1 X69.976 Y133.216 E24.57301
G1 X69.272 Y132.65 E24.60306
G1 X68.621 Y132.024 E24.63309
G1 X68.028 Y131.343 E24.66313
G1 X67.498 Y130.612 E24.69316
G1 X67.034 Y129.837 E24.7232
G1 X66.64 Y129.024 E24.75325
G1 X66.32 Y128.18 E24.78327
G1 X66.076 Y127.31 E24.81333
G1 X65.91 Y126.422 E24.84337
G1 X65.813 Y125.267 E24.88192
G1 X65.804 Y124.934 E24.893
G1 X65.8 Y124.658 E24.90218
G1 X65.801 Y95.536 E25.87079
G1 X65.81 Y94.871 E25.89291
G1 X65.862 Y93.969 E25.92296
G1 X65.994 Y93.076 E25.95298
G1 X66.204 Y92.198 E25.98301
G1 X66.491 Y91.341 E26.01307
G1 X66.853 Y90.514 E26.04309
G1 X67.286 Y89.722 E26.07311
G1 X67.788 Y88.971 E26.10316
G1 X68.355 Y88.267 E26.13322
G1 X68.981 Y87.617 E26.16324
G1 X69.662 Y87.024 E26.19327
G1 F1500 E19.69327
;MESH:camera_hold.stl
G0 F6000 X76.42 Y94.335
G0 X76.42 Y95.42
G0 X143.218 Y95.782
G0 X143.4 Y124.4
;TYPE:WALL-INNER
G1 F1500 E26.19327
G1 F1200 X76.6 Y124.4 E28.41505
G1 X76.6 Y95.6 E29.37294
G1 X143.4 Y95.6 E31.59472
G1 X143.4 Y124.4 E32.55261
G0 F6000 X143.8 Y124.8
;TYPE:WALL-OUTER
G1 F1200 X76.2 Y124.8 E34.801
G1 X76.2 Y95.2 E35.7855
G1 X143.8 Y95.2 E38.03388
G1 X143.8 Y124.8 E39.01838
G0 F6000 X143.53 Y124.53
G0 X143.29 Y124.01
G0 X143.01 Y124.01
;TYPE:SKIN
G1 F1200 X76.99 Y124.01 E41.21421
G1 X76.99 Y95.99 E42.14616
G1 X143.01 Y95.99 E44.342
G1 X143.01 Y124.01 E45.27395
G0 F6000 X143.29 Y124.01
G0 X143.29 Y96.463
G0 X142.849 Y96.463
G1 F1200 X142.536 Y96.15 E45.28867
G0 F6000 X141.97 Y96.15
G1 F1200 X142.849 Y97.029 E45.33001
G0 F6000 X142.849 Y97.594
G1 F1200 X141.405 Y96.15 E45.39794
G0 F6000 X140.839 Y96.15
G1 F1200 X142.849 Y98.16 E45.49248
G0 F6000 X142.849 Y98.726
G1 F1200 X140.273 Y96.15 E45.61365
G0 F6000 X139.708 Y96.15
G1 F1200 X142.849 Y99.291 E45.76139
G0 F6000 X142.849 Y99.857
G1 F1200 X139.142 Y96.15 E45.93576
G0 F6000 X138.576 Y96.15
G1 F1200 X142.849 Y100.423 E46.13675
G0 F6000 X142.849 Y100.988
G1 F1200 X138.01 Y96.15 E46.36433
G0 F6000 X137.445 Y96.15
G1 F1200 X142.849 Y101.554 E46.61852
G0 F6000 X142.849 Y102.12
G1 F1200 X136.879 Y96.15 E46.89933
G0 F6000 X136.313 Y96.15
G1 F1200 X142.849 Y102.686 E47.20677
G0 F6000 X142.849 Y103.251
G1 F1200 X135.748 Y96.15 E47.54077
G0 F6000 X135.182 Y96.15
G1 F1200 X142.849 Y103.817 E47.90141
G0 F6000 X142.849 Y104.383
G1 F1200 X134.616 Y96.15 E48.28866
G0 F6000 X134.051 Y96.15
G1 F1200 X142.849 Y104.948 E48.70249
G0 F6000 X142.849 Y105.514
G1 F1200 X133.485 Y96.15 E49.14295
G0 F6000 X132.919 Y96.15
G1 F1200 X142.849 Y106.08 E49.61002
G0 F6000 X142.849 Y106.645
G1 F1200 X132.354 Y96.15 E50.10368
G0 F6000 X131.788 Y96.15
G1 F1200 X142.849 Y107.211 E50.62395
G0 F6000 X142.849 Y107.777
G1 F1200 X131.222 Y96.15 E51.17085
G0 F6000 X130.657 Y96.15
G1 F1200 X142.849 Y108.342 E51.74432
G0 F6000 X142.849 Y108.908
G1 F1200 X130.091 Y96.15 E52.34442
G0 F6000 X129.525 Y96.15
G1 F1200 X142.849 Y109.474 E52.97114
G0 F6000 X142.849 Y110.039
G1 F1200 X128.96 Y96.15 E53.62444
G0 F6000 X128.394 Y96.15
G1 F1200 X142.849 Y110.605 E54.30436
G0 F6000 X142.849 Y111.171
G1 F1200 X127.828 Y96.15 E55.0109
G0 F6000 X127.262 Y96.15
G1 F1200 X142.849 Y111.737 E55.74406
G0 F6000 X142.849 Y112.302
G1 F1200 X126.697 Y96.15 E56.5038
G0 F6000 X126.131 Y96.15
G1 F1200 X142.849 Y112.868 E57.29017
G0 F6000 X142.849 Y113.434
G1 F1200 X125.565 Y96.15 E58.10315
G0 F6000 X125 Y96.15
G1 F1200 X142.849 Y113.999 E58.94272
G0 F6000 X142.849 Y114.565
G1 F1200 X124.434 Y96.15 E59.8089
G0 F6000 X123.868 Y96.15
G1 F1200 X142.849 Y115.131 E60.70171
G0 F6000 X142.849 Y115.696
G1 F1200 X123.303 Y96.15 E61.62109
G0 F6000 X122.737 Y96.15
G1 F1200 X142.849 Y116.262 E62.5671
G0 F6000 X142.849 Y116.828
G1 F1200 X122.171 Y96.15 E63.53973
G0 F6000 X121.606 Y96.15
G1 F1200 X142.849 Y117.393 E64.53893
G0 F6000 X142.849 Y117.959
G1 F1200 X121.04 Y96.15 E65.56476
G0 F6000 X120.474 Y96.15
G1 F1200 X142.849 Y118.525 E66.61721
G0 F6000 X142.849 Y119.09
G1 F1200 X119.909 Y96.15 E67.69624
G0 F6000 X119.343 Y96.15
G1 F1200 X142.849 Y119.656 E68.80189
G0 F6000 X142.849 Y120.222
G1 F1200 X118.777 Y96.15 E69.93416
G0 F6000 X118.211 Y96.15
G1 F1200 X142.849 Y120.787 E71.09304
G0 F6000 X142.849 Y121.353
G1 F1200 X117.646 Y96.15 E72.27851
G0 F6000 X117.08 Y96.15
G1 F1200 X142.849 Y121.919 E73.4906
G0 F6000 X142.849 Y122.485
G1 F1200 X116.514 Y96.15 E74.72932
G0 F6000 X115.949 Y96.15
G1 F1200 X142.849 Y123.05 E75.99462
G0 F6000 X142.849 Y123.616
G1 F1200 X115.383 Y96.15 E77.28653
G0 F6000 X114.817 Y96.15
G1 F1200 X142.516 Y123.849 E78.58941
G0 F6000 X141.95 Y123.849
G1 F1200 X114.252 Y96.15 E79.89226
G0 F6000 X113.686 Y96.15
G1 F1200 X141.385 Y123.849 E81.19514
G0 F6000 X140.819 Y123.849
G1 F1200 X113.12 Y96.15 E82.49801
G0 F6000 X112.555 Y96.15
G1 F1200 X140.253 Y123.849 E83.80086
G0 F6000 X139.688 Y123.849
G1 F1200 X111.989 Y96.15 E85.10374
G0 F6000 X111.423 Y96.15
G1 F1200 X139.122 Y123.849 E86.40662
G0 F6000 X138.556 Y123.849
G1 F1200 X110.858 Y96.15 E87.70947
G0 F6000 X110.292 Y96.15
G1 F1200 X137.991 Y123.849 E89.01235
G0 F6000 X137.425 Y123.849
G1 F1200 X109.726 Y96.15 E90.31522
G0 F6000 X109.161 Y96.15
G1 F1200 X136.859 Y123.849 E91.61807
G0 F6000 X136.294 Y123.849
G1 F1200 X108.595 Y96.15 E92.92095
G0 F6000 X108.029 Y96.15
G1 F1200 X135.728 Y123.849 E94.22383
G0 F6000 X135.162 Y123.849
G1 F1200 X107.463 Y96.15 E95.5267
G0 F6000 X106.898 Y96.15
G1 F1200 X134.597 Y123.849 E96.82958
G0 F6000 X134.031 Y123.849
G1 F1200 X106.332 Y96.15 E98.13245
G0 F6000 X105.766 Y96.15
G1 F1200 X133.465 Y123.849 E99.43533
G0 F6000 X132.9 Y123.849
G1 F1200 X105.201 Y96.15 E100.73821
G0 F6000 X104.635 Y96.15
G1 F1200 X132.334 Y123.849 E102.04108
G0 F6000 X131.768 Y123.849
G1 F1200 X104.069 Y96.15 E103.34396
G0 F6000 X103.504 Y96.15
G1 F1200 X131.202 Y123.849 E104.64681
G0 F6000 X130.637 Y123.849
G1 F1200 X102.938 Y96.15 E105.94969
G0 F6000 X102.372 Y96.15
G1 F1200 X130.071 Y123.849 E107.25256
G0 F6000 X129.505 Y123.849
G1 F1200 X101.807 Y96.15 E108.55542
G0 F6000 X101.241 Y96.15
G1 F1200 X128.94 Y123.849 E109.85829
G0 F6000 X128.374 Y123.849
G1 F1200 X100.675 Y96.15 E111.16117
G0 F6000 X100.11 Y96.15
G1 F1200 X127.808 Y123.849 E112.46402
G0 F6000 X127.243 Y123.849
G1 F1200 X99.544 Y96.15 E113.7669
G0 F6000 X98.978 Y96.15
G1 F1200 X126.677 Y123.849 E115.06977
G0 F6000 X126.111 Y123.849
G1 F1200 X98.413 Y96.15 E116.37262
G0 F6000 X97.847 Y96.15
G1 F1200 X125.546 Y123.849 E117.6755
G0 F6000 X124.98 Y123.849
G1 F1200 X97.281 Y96.15 E118.97838
G0 F6000 X96.715 Y96.15
G1 F1200 X124.414 Y123.849 E120.28125
G0 F6000 X123.849 Y123.849
G1 F1200 X96.15 Y96.15 E121.58413
G0 F6000 X95.584 Y96.15
G1 F1200 X123.283 Y123.849 E122.887
G0 F6000 X122.717 Y123.849
G1 F1200 X95.018 Y96.15 E124.18988
G0 F6000 X94.453 Y96.15
G1 F1200 X122.151 Y123.849 E125.49273
G0 F6000 X121.586 Y123.849
G1 F1200 X93.887 Y96.15 E126.79561
G0 F6000 X93.321 Y96.15
G1 F1200 X121.02 Y123.849 E128.09849
G0 F6000 X120.454 Y123.849
G1 F1200 X92.756 Y96.15 E129.40134
G0 F6000 X92.19 Y96.15
G1 F1200 X119.889 Y123.849 E130.70421
G0 F6000 X119.323 Y123.849
G1 F1200 X91.624 Y96.15 E132.00709
G0 F6000 X91.059 Y96.15
G1 F1200 X118.757 Y123.849 E133.30994
G0 F6000 X118.192 Y123.849
G1 F1200 X90.493 Y96.15 E134.61282
G0 F6000 X89.927 Y96.15
G1 F1200 X117.626 Y123.849 E135.91569
G0 F6000 X117.06 Y123.849
G1 F1200 X89.362 Y96.15 E137.21855
G0 F6000 X88.796 Y96.15
G1 F1200 X116.495 Y123.849 E138.52142
G0 F6000 X115.929 Y123.849
G1 F1200 X88.23 Y96.15 E139.8243
G0 F6000 X87.664 Y96.15
G1 F1200 X115.363 Y123.849 E141.12718
G0 F6000 X114.798 Y123.849
G1 F1200 X87.099 Y96.15 E142.43005
G0 F6000 X86.533 Y96.15
G1 F1200 X114.232 Y123.849 E143.73293
G0 F6000 X113.666 Y123.849
G1 F1200 X85.967 Y96.15 E145.0358
G0 F6000 X85.402 Y96.15
G1 F1200 X113.101 Y123.849 E146.33868
G0 F6000 X112.535 Y123.849
G1 F1200 X84.836 Y96.15 E147.64156
G0 F6000 X84.27 Y96.15
G1 F1200 X111.969 Y123.849 E148.94443
G0 F6000 X111.403 Y123.849
G1 F1200 X83.705 Y96.15 E150.24728
G0 F6000 X83.139 Y96.15
G1 F1200 X110.838 Y123.849 E151.55016
G0 F6000 X110.272 Y123.849
G1 F1200 X82.573 Y96.15 E152.85304
G0 F6000 X82.008 Y96.15
G1 F1200 X109.706 Y123.849 E154.15589
G0 F6000 X109.141 Y123.849
G1 F1200 X81.442 Y96.15 E155.45876
G0 F6000 X80.876 Y96.15
G1 F1200 X108.575 Y123.849 E156.76164
G0 F6000 X108.009 Y123.849
G1 F1200 X80.311 Y96.15 E158.06449
