;FLAVOR:Marlin
;TIME:14998
;Filament used: 9.32854m
;Layer height: 0.2
;MINX:49
;MINY:79
;MINZ:0.2
;MAXX:171
;MAXY:141
;MAXZ:100
;Generated with Cura_SteamEngine 4.13.1
M140 S55
M105
M190 S55
M104 S205
M105
M109 S205
M82 ;absolute extrusion mode
; Ender 3 Custom Start G-code
G92 E0 ; Reset Extruder
G28 ; Home all axes
G1 Z2.0 F3000 ; Move Z Axis up little to prevent scratching of Heat Bed
G1 X0.1 Y20 Z0.3 F5000.0 ; Move to start position
G1 X0.1 Y200.0 Z0.3 F1500.0 E15 ; Draw the first line
G1 X0.4 Y200.0 Z0.3 F5000.0 ; Move to side a little
G1 X0.4 Y20 Z0.3 F1500.0 E30 ; Draw the second line
G92 E0 ; Reset Extruder
G1 Z2.0 F3000 ; Move Z Axis up little to prevent scratching of Heat Bed
G1 X5 Y20 Z0.3 F5000.0 ; Move over to prevent blob squish
G92 E0
G92 E0
G1 F1500 E-6.5
;LAYER_COUNT:500
;LAYER:0
M107
G0 F6000 X53.626 Y81.051 Z0.2
;TYPE:SKIRT
G1 F1500 E0
G1 F1200 X54.412 Y80.539 E0.0312
G1 X55.239 Y80.097 E0.06239
G1 X56.101 Y79.727 E0.09359
G1 X56.991 Y79.431 E0.12478
G1 X57.903 Y79.213 E0.15597
G1 X58.83 Y79.072 E0.18716
G1 X59.701 Y79.013 E0.21619
G1 X60.022 Y79.004 E0.22687
G1 X60.33 Y79 E0.23712
G1 X159.293 Y79 E3.52864
G1 X160.149 Y79.011 E3.55712
G1 X161.085 Y79.065 E3.5883
G1 X162.013 Y79.197 E3.61947
G1 X162.927 Y79.409 E3.65068
G1 X163.819 Y79.698 E3.68187
G1 X164.684 Y80.061 E3.71307
G1 X165.514 Y80.497 E3.74425
G1 X166.305 Y81.002 E3.77546
G1 X167.049 Y81.573 E3.80666
G1 X167.742 Y82.205 E3.83785
G1 X168.379 Y82.893 E3.86904
G1 X168.954 Y83.634 E3.90023
G1 X169.465 Y84.42 E3.93142
G1 X169.907 Y85.248 E3.96263
G1 X170.276 Y86.11 E3.99382
G1 X170.571 Y87 E4.025
G1 X170.789 Y87.912 E4.05619
G1 X170.929 Y88.84 E4.08741
G1 X170.987 Y89.701 E4.11611
G1 X170.996 Y90.021 E4.12676
G1 X171 Y90.33 E4.13703
G1 X170.999 Y129.4 E5.43651
G1 X170.99 Y130.127 E5.46069
G1 X170.939 Y131.064 E5.4919
G1 X170.807 Y131.992 E5.52308
G1 X170.598 Y132.906 E5.55426
G1 X170.311 Y133.799 E5.58546
G1 X169.949 Y134.665 E5.61668
G1 X169.515 Y135.496 E5.64786
G1 X169.011 Y136.287 E5.67905
G1 X168.442 Y137.032 E5.71023
G1 X167.811 Y137.727 E5.74146
G1 X167.124 Y138.365 E5.77264
G1 X166.385 Y138.942 E5.80382
G1 X165.599 Y139.454 E5.83502
G1 X164.773 Y139.897 E5.8662
G1 X163.911 Y140.269 E5.89742
G1 X163.022 Y140.565 E5.92859
G1 X162.11 Y140.785 E5.95979
G1 X161.183 Y140.926 E5.99098
G1 X160.299 Y140.987 E6.02045
G1 X159.978 Y140.996 E6.03113
G1 X159.67 Y141 E6.04138
G1 X60.565 Y140.999 E9.33762
G1 X59.867 Y140.99 E9.36084
G1 X58.931 Y140.938 E9.39202
G1 X58.002 Y140.806 E9.42323
G1 X57.088 Y140.596 E9.45442
G1 X56.195 Y140.309 E9.48562
G1 X55.33 Y139.946 E9.51682
G1 X54.499 Y139.512 E9.548
G1 X53.708 Y139.008 E9.57919
G1 X52.963 Y138.438 E9.61039
G1 X52.269 Y137.807 E9.64159
G1 X51.632 Y137.12 E9.67275
G1 X51.055 Y136.38 E9.70396
G1 X50.543 Y135.594 E9.73516
G1 X50.1 Y134.767 E9.76636
G1 X49.729 Y133.906 E9.79755
G1 X49.433 Y133.016 E9.82874
G1 X49.214 Y132.104 E9.85994
G1 X49.073 Y131.177 E9.89113
G1 X49.013 Y130.288 E9.92076
G1 X49.004 Y129.955 E9.93184
G1 X49 Y129.658 E9.94172
G1 X49.001 Y90.525 E11.24329
G1 X49.01 Y89.86 E11.26541
G1 X49.063 Y88.924 E11.29659
G1 X49.195 Y87.995 E11.3278
G1 X49.406 Y87.081 E11.359
G1 X49.694 Y86.189 E11.39017
G1 X50.057 Y85.324 E11.42137
G1 X50.492 Y84.493 E11.45257
G1 X50.996 Y83.703 E11.48374
G1 X51.566 Y82.958 E11.51494
G1 X52.198 Y82.264 E11.54616
G1 X52.886 Y81.627 E11.57734
G1 X53.626 Y81.051 E11.60853
G0 F6000 X54.01 Y81.27
G1 F1200 X54.791 Y80.782 E11.63916
G1 X55.611 Y80.364 E11.66978
G1 X56.465 Y80.019 E11.70041
G1 X57.345 Y79.749 E11.73103
G1 X58.245 Y79.557 E11.76163
G1 X59.159 Y79.443 E11.79227
G1 X59.712 Y79.413 E11.81069
G1 X60.033 Y79.404 E11.82137
G1 X60.33 Y79.4 E11.83125
G1 X159.293 Y79.4 E15.12277
G1 X160.143 Y79.411 E15.15104
G1 X161.062 Y79.464 E15.18166
G1 X161.973 Y79.597 E15.21228
G1 X162.869 Y79.808 E15.2429
G1 X163.743 Y80.096 E15.27351
G1 X164.59 Y80.459 E15.30416
G1 X165.401 Y80.894 E15.33476
G1 X166.171 Y81.398 E15.36537
G1 X166.895 Y81.967 E15.396
G1 X167.567 Y82.597 E15.42664
G1 X168.182 Y83.282 E15.45726
G1 X168.735 Y84.018 E15.48787
G1 X169.222 Y84.799 E15.51849
G1 X169.639 Y85.62 E15.54911
G1 X169.984 Y86.474 E15.57975
G1 X170.253 Y87.354 E15.61035
G1 X170.445 Y88.255 E15.64099
G1 X170.558 Y89.168 E15.67159
G1 X170.587 Y89.712 E15.68971
G1 X170.596 Y90.032 E15.70036
G1 X170.6 Y90.33 E15.71027
G1 X170.599 Y129.395 E17.00958
G1 X170.59 Y130.122 E17.03376
G1 X170.539 Y131.041 E17.06437
G1 X170.408 Y131.953 E17.09502
G1 X170.198 Y132.849 E17.12563
G1 X169.912 Y133.724 E17.15625
G1 X169.551 Y134.571 E17.18687
G1 X169.117 Y135.383 E17.21749
G1 X168.615 Y136.155 E17.24812
G1 X168.047 Y136.88 E17.27875
G1 X167.419 Y137.553 E17.30937
G1 X166.735 Y138.169 E17.33998
G1 X166 Y138.723 E17.3706
G1 X165.22 Y139.212 E17.40122
G1 X164.4 Y139.631 E17.43184
G1 X163.547 Y139.977 E17.46246
G1 X162.667 Y140.248 E17.49308
G1 X161.767 Y140.441 E17.5237
G1 X160.853 Y140.556 E17.55434
G1 X160.288 Y140.587 E17.57316
G1 X159.967 Y140.596 E17.58384
G1 X159.67 Y140.6 E17.59372
G1 X60.57 Y140.599 E20.8898
G1 X59.872 Y140.59 E20.91302
G1 X58.953 Y140.538 E20.94363
G1 X58.042 Y140.407 E20.97424
G1 X57.146 Y140.197 E21.00485
G1 X56.271 Y139.91 E21.03548
G1 X55.424 Y139.548 E21.06612
G1 X54.612 Y139.114 E21.09674
G1 X53.841 Y138.612 E21.12734
G1 X53.116 Y138.044 E21.15797
G1 X52.443 Y137.415 E21.18861
G1 X51.828 Y136.731 E21.2192
G1 X51.274 Y135.996 E21.24982
G1 X50.786 Y135.215 E21.28045
G1 X50.367 Y134.395 E21.31107
G1 X50.021 Y133.542 E21.34169
G1 X49.751 Y132.662 E21.37231
G1 X49.558 Y131.761 E21.40295
G1 X49.444 Y130.848 E21.43356
G1 X49.413 Y130.277 E21.45257
G1 X49.404 Y129.944 E21.46365
G1 X49.4 Y129.658 E21.47317
G1 X49.401 Y90.531 E22.77454
G1 X49.41 Y89.866 E22.79666
G1 X49.462 Y88.946 E22.82731
G1 X49.594 Y88.035 E22.85792
G1 X49.805 Y87.139 E22.88854
G1 X50.092 Y86.264 E22.91917
G1 X50.455 Y85.418 E22.94978
G1 X50.889 Y84.606 E22.98041
G1 X51.392 Y83.835 E23.01103
G1 X51.961 Y83.111 E23.04165
G1 X52.589 Y82.439 E23.07224
G1 X53.274 Y81.823 E23.10289
G1 X54.01 Y81.27 E23.1335
G0 F6000 X54.394 Y81.494
G1 F1200 X55.169 Y81.031 E23.16353
G1 X55.982 Y80.638 E23.19356
G1 X56.827 Y80.318 E23.22362
G1 X57.696 Y80.075 E23.25363
G1 X58.584 Y79.909 E23.28368
G1 X59.723 Y79.813 E23.32169
G1 X60.044 Y79.804 E23.33237
G1 X60.33 Y79.8 E23.34189
G1 X159.293 Y79.8 E26.63341
G1 X160.137 Y79.811 E26.66148
G1 X161.039 Y79.864 E26.69154
G1 X161.932 Y79.996 E26.72156
G1 X162.81 Y80.207 E26.75159
G1 X163.666 Y80.495 E26.78163
G1 X164.493 Y80.857 E26.81166
G1 X165.285 Y81.292 E26.84171
G1 X166.036 Y81.794 E26.87176
G1 X166.739 Y82.361 E26.9018
G1 X167.389 Y82.988 E26.93183
G1 X167.981 Y83.67 E26.96187
G1 X168.511 Y84.401 E26.9919
G1 X168.973 Y85.177 E27.02194
G1 X169.366 Y85.99 E27.05198
G1 X169.684 Y86.835 E27.082
G1 X169.927 Y87.705 E27.11205
G1 X170.092 Y88.593 E27.14209
G1 X170.187 Y89.723 E27.17981
G1 X170.196 Y90.043 E27.19045
G1 X170.2 Y90.33 E27.2
G1 X170.199 Y129.39 E28.49914
G1 X170.19 Y130.117 E28.52332
G1 X170.139 Y131.019 E28.55337
G1 X170.008 Y131.913 E28.58342
G1 X169.799 Y132.791 E28.61344
G1 X169.513 Y133.648 E28.64349
G1 X169.152 Y134.476 E28.67353
G1 X168.72 Y135.268 E28.70354
G1 X168.219 Y136.02 E28.73359
G1 X167.653 Y136.724 E28.76364
G1 X167.028 Y137.375 E28.79365
G1 X166.347 Y137.969 E28.82371
G1 X165.616 Y138.5 E28.85376
G1 X164.842 Y138.964 E28.88377
G1 X164.029 Y139.358 E28.91382
G1 X163.185 Y139.678 E28.94384
G1 X162.315 Y139.923 E28.97391
G1 X161.428 Y140.089 E29.00392
G1 X160.277 Y140.187 E29.04234
G1 X159.956 Y140.196 E29.05302
G1 X159.67 Y140.2 E29.06254
G1 X60.575 Y140.199 E32.35845
G1 X59.877 Y140.19 E32.38167
G1 X58.976 Y140.139 E32.41168
G1 X58.082 Y140.007 E32.44174
G1 X57.204 Y139.798 E32.47176
G1 X56.347 Y139.511 E32.50182
G1 X55.52 Y139.15 E32.53183
G1 X54.727 Y138.717 E32.56188
G1 X53.976 Y138.216 E32.59191
G1 X53.272 Y137.65 E32.62195
G1 X52.621 Y137.024 E32.65199
G1 X52.028 Y136.343 E32.68202
G1 X51.498 Y135.612 E32.71205
G1 X51.034 Y134.837 E32.7421
G1 X50.64 Y134.024 E32.77215
G1 X50.32 Y133.18 E32.80217
G1 X50.076 Y132.31 E32.83222
G1 X49.91 Y131.422 E32.86227
G1 X49.813 Y130.267 E32.90082
G1 X49.804 Y129.934 E32.9119
G1 X49.8 Y129.658 E32.92108
G1 X49.801 Y90.536 E34.22228
G1 X49.81 Y89.871 E34.2444
G1 X49.862 Y88.969 E34.27445
G1 X49.994 Y88.076 E34.30448
G1 X50.204 Y87.198 E34.3345
G1 X50.491 Y86.341 E34.36456
G1 X50.853 Y85.514 E34.39459
G1 X51.286 Y84.722 E34.42461
G1 X51.788 Y83.971 E34.45465
G1 X52.355 Y83.267 E34.48472
G1 X52.981 Y82.617 E34.51473
G1 X53.662 Y82.024 E34.54477
G1 X54.394 Y81.494 E34.57483
G1 F1500 E28.07483
;MESH:camera_stand.stl
G0 F6000 X107.67 Y110
G0 X106.203 Y110
G0 X107.018 Y111.721
G0 X107.565 Y112.435
G0 X108.279 Y112.982
G0 X108.514 Y113.079
G0 X110 Y113.605
;TYPE:WALL-INNER
G1 F1500 E34.57483
G1 F1200 X110.932 Y113.483 E34.60609
G1 X111.803 Y113.122 E34.63745
G1 X112.549 Y112.549 E34.66874
G1 X113.122 Y111.803 E34.70002
G1 X113.483 Y110.932 E34.73138
G1 X113.605 Y110 E34.76264
G1 X113.483 Y109.068 E34.79391
G1 X113.122 Y108.197 E34.82527
G1 X112.549 Y107.451 E34.85655
G1 X111.803 Y106.878 E34.88784
G1 X110.932 Y106.517 E34.9192
G1 X110 Y106.395 E34.95046
G1 X109.068 Y106.517 E34.98172
G1 X108.197 Y106.878 E35.01308
G1 X107.451 Y107.451 E35.04437
G1 X106.878 Y108.197 E35.07566
G1 X106.517 Y109.068 E35.10702
G1 X106.395 Y110 E35.13828
G1 X106.517 Y110.932 E35.16954
G1 X106.878 Y111.803 E35.2009
G1 X107.451 Y112.549 E35.23219
G1 X108.197 Y113.122 E35.26347
G1 X109.068 Y113.483 E35.29483
G1 X110 Y113.605 E35.3261
G0 F6000 X110 Y113.202
;TYPE:WALL-OUTER
G1 F1200 X110.828 Y113.093 E35.35387
G1 X111.601 Y112.773 E35.3817
G1 X112.264 Y112.264 E35.4095
G1 X112.773 Y111.601 E35.4373
G1 X113.093 Y110.828 E35.46513
G1 X113.202 Y110 E35.4929
G1 X113.093 Y109.172 E35.52068
G1 X112.773 Y108.399 E35.54851
G1 X112.264 Y107.736 E35.57631
G1 X111.601 Y107.227 E35.60411
G1 X110.828 Y106.907 E35.63193
G1 X110 Y106.798 E35.65971
G1 X109.172 Y106.907 E35.68749
G1 X108.399 Y107.227 E35.71531
G1 X107.736 Y107.736 E35.74311
G1 X107.227 Y108.399 E35.77091
G1 X106.907 Y109.172 E35.79874
G1 X106.798 Y110 E35.82652
G1 X106.907 Y110.828 E35.85429
G1 X107.227 Y111.601 E35.88212
G1 X107.736 Y112.264 E35.90992
G1 X108.399 Y112.773 E35.93772
G1 X109.172 Y113.093 E35.96555
G1 X110 Y113.202 E35.99332
G0 F6000 X110 Y113.642
G1 F1500 E29.49332
G0 F6000 X111.899 Y113.288
G0 X111.161 Y112.021
G0 X111.899 Y130.665
G0 X111.899 Y129.19
G0 X159.4 Y129.4
;TYPE:WALL-INNER
G1 F1500 E35.99332
G1 F1200 X60.6 Y129.4 E39.27943
G1 X60.6 Y90.6 E40.56992
G1 X159.4 Y90.6 E43.85602
G1 X159.4 Y129.4 E45.14651
G0 F6000 X159.8 Y129.8
;TYPE:WALL-OUTER
G1 F1200 X60.2 Y129.8 E48.45922
G1 X60.2 Y90.2 E49.77632
G1 X159.8 Y90.2 E53.08903
G1 X159.8 Y129.8 E54.40614
G0 F6000 X159.53 Y129.53
G0 X159.29 Y129.01
G0 X159.01 Y129.01
;TYPE:SKIN
G1 F1200 X60.99 Y129.01 E57.66629
G1 X60.99 Y90.99 E58.93084
G1 X159.01 Y90.99 E62.191
G1 X159.01 Y129.01 E63.45555
G1 F1500 E56.95555
G0 F6000 X159.29 Y129.01
G0 X113.591 Y129.19
G0 X113.591 Y130.665
G0 X111.647 Y111.647
G0 X112.685 Y112.685
G0 X113.591 Y110.961
G1 F1500 E63.45555
G0 F6000 X113.863 Y111.034
G1 F1200 X113.999 Y110 E63.49024
G1 X113.863 Y108.966 E63.52493
G1 X113.463 Y108 E63.5597
G1 X112.828 Y107.172 E63.59441
G1 X112 Y106.537 E63.62911
G1 X111.034 Y106.137 E63.66389
G1 X110 Y106.001 E63.69858
G1 X108.966 Y106.137 E63.73326
G1 X108 Y106.537 E63.76804
G1 X107.172 Y107.172 E63.80274
G1 X106.537 Y108 E63.83745
G1 X106.137 Y108.966 E63.87222
G1 X106.001 Y110 E63.90691
G1 X106.137 Y111.034 E63.9416
G1 X106.537 Y112 E63.97637
G1 X107.172 Y112.828 E64.01108
G1 X108 Y113.463 E64.04578
G1 X108.966 Y113.863 E64.08056
G1 X110 Y113.999 E64.11525
G1 X111.034 Y113.863 E64.14993
G1 X112 Y113.463 E64.18471
G1 X112.828 Y112.828 E64.21941
G1 X113.463 Y112 E64.25412
G1 X113.863 Y111.034 E64.28889
G1 F1500 E57.78889
G0 F6000 X113.591 Y110.961
G0 X113.797 Y110
G0 X112.33 Y110
G0 X160.665 Y110
G0 X159.19 Y110
G0 X159.29 Y91.532
G1 F1500 E64.28889
G0 F6000 X158.849 Y91.532
G1 F1200 X158.466 Y91.149 E64.30691
G0 F6000 X157.9 Y91.149
G1 F1200 X158.849 Y92.098 E64.35155
G0 F6000 X158.849 Y92.664
G1 F1200 X157.334 Y91.149 E64.42281
G0 F6000 X156.769 Y91.149
G1 F1200 X158.849 Y93.229 E64.52065
G0 F6000 X158.849 Y93.795
G1 F1200 X156.203 Y91.149 E64.6451
G0 F6000 X155.637 Y91.149
G1 F1200 X158.849 Y94.361 E64.79619
G0 F6000 X158.849 Y94.926
G1 F1200 X155.072 Y91.149 E64.97385
G0 F6000 X154.506 Y91.149
G1 F1200 X158.849 Y95.492 E65.17813
G0 F6000 X158.849 Y96.058
G1 F1200 X153.94 Y91.149 E65.40903
G0 F6000 X153.374 Y91.149
G1 F1200 X158.849 Y96.624 E65.66656
G0 F6000 X158.849 Y97.189
G1 F1200 X152.809 Y91.149 E65.95066
G0 F6000 X152.243 Y91.149
G1 F1200 X158.849 Y97.755 E66.26139
G0 F6000 X158.849 Y98.321
G1 F1200 X151.677 Y91.149 E66.59874
G0 F6000 X151.112 Y91.149
G1 F1200 X158.849 Y98.886 E66.96266
G0 F6000 X158.849 Y99.452
G1 F1200 X150.546 Y91.149 E67.35321
G0 F6000 X149.98 Y91.149
G1 F1200 X158.849 Y100.018 E67.77038
G0 F6000 X158.849 Y100.583
G1 F1200 X149.415 Y91.149 E68.21413
G0 F6000 X148.849 Y91.149
G1 F1200 X158.849 Y101.149 E68.6845
G0 F6000 X158.849 Y101.715
G1 F1200 X148.283 Y91.149 E69.18149
G0 F6000 X147.718 Y91.149
G1 F1200 X158.849 Y102.28 E69.70506
G0 F6000 X158.849 Y102.846
G1 F1200 X147.152 Y91.149 E70.25525
G0 F6000 X146.586 Y91.149
G1 F1200 X158.849 Y103.412 E70.83206
G0 F6000 X158.849 Y103.977
G1 F1200 X146.021 Y91.149 E71.43545
G0 F6000 X145.455 Y91.149
G1 F1200 X158.849 Y104.543 E72.06546
G0 F6000 X158.849 Y105.109
G1 F1200 X144.889 Y91.149 E72.7221
G0 F6000 X144.324 Y91.149
G1 F1200 X158.849 Y105.674 E73.40531
G0 F6000 X158.849 Y106.24
G1 F1200 X143.758 Y91.149 E74.11514
G0 F6000 X143.192 Y91.149
G1 F1200 X158.849 Y106.806 E74.8516
G0 F6000 X158.849 Y107.372
G1 F1200 X142.626 Y91.149 E75.61468
G0 F6000 X142.061 Y91.149
G1 F1200 X158.849 Y107.937 E76.40434
G0 F6000 X158.849 Y108.503
G1 F1200 X141.495 Y91.149 E77.22062
G0 F6000 X140.929 Y91.149
G1 F1200 X158.849 Y109.069 E78.06352
G0 F6000 X158.849 Y109.634
G1 F1200 X140.364 Y91.149 E78.933
G0 F6000 X139.798 Y91.149
G1 F1200 X158.849 Y110.2 E79.8291
G0 F6000 X158.849 Y110.766
G1 F1200 X139.232 Y91.149 E80.75182
G0 F6000 X138.667 Y91.149
G1 F1200 X158.849 Y111.331 E81.70112
G0 F6000 X158.849 Y111.897
G1 F1200 X138.101 Y91.149 E82.67704
G0 F6000 X137.535 Y91.149
G1 F1200 X158.849 Y112.463 E83.67959
G0 F6000 X158.849 Y113.028
G1 F1200 X136.97 Y91.149 E84.70871
G0 F6000 X136.404 Y91.149
G1 F1200 X158.849 Y113.594 E85.76445
G0 F6000 X158.849 Y114.16
G1 F1200 X135.838 Y91.149 E86.84682
G0 F6000 X135.273 Y91.149
G1 F1200 X158.849 Y114.725 E87.95576
G0 F6000 X158.849 Y115.291
G1 F1200 X134.707 Y91.149 E89.09133
G0 F6000 X134.141 Y91.149
G1 F1200 X158.849 Y115.857 E90.25352
G0 F6000 X158.849 Y116.423
G1 F1200 X133.576 Y91.149 E91.4423
G0 F6000 X133.01 Y91.149
G1 F1200 X158.849 Y116.988 E92.65769
G0 F6000 X158.849 Y117.554
G1 F1200 X132.444 Y91.149 E93.8997
G0 F6000 X131.878 Y91.149
G1 F1200 X158.849 Y118.12 E95.16834
G0 F6000 X158.849 Y118.685
G1 F1200 X131.313 Y91.149 E96.46354
G0 F6000 X130.747 Y91.149
G1 F1200 X158.849 Y119.251 E97.78538
G0 F6000 X158.849 Y119.817
G1 F1200 X130.181 Y91.149 E99.13383
G0 F6000 X129.616 Y91.149
G1 F1200 X158.849 Y120.382 E100.50886
G0 F6000 X158.849 Y120.948
G1 F1200 X129.05 Y91.149 E101.91052
G0 F6000 X128.484 Y91.149
G1 F1200 X158.849 Y121.514 E103.33879
G0 F6000 X158.849 Y122.079
G1 F1200 X127.919 Y91.149 E104.79364
G0 F6000 X127.353 Y91.149
G1 F1200 X158.849 Y122.645 E106.27512
G0 F6000 X158.849 Y123.211
G1 F1200 X126.787 Y91.149 E107.78322
G0 F6000 X126.222 Y91.149
G1 F1200 X158.849 Y123.776 E109.31789
G0 F6000 X158.849 Y124.342
G1 F1200 X125.656 Y91.149 E110.87919
G0 F6000 X125.09 Y91.149
G1 F1200 X158.849 Y124.908 E112.46711
G0 F6000 X158.849 Y125.473
G1 F1200 X124.525 Y91.149 E114.0816
G0 F6000 X123.959 Y91.149
G1 F1200 X158.849 Y126.039 E115.72272
G0 F6000 X158.849 Y126.605
G1 F1200 X123.393 Y91.149 E117.39046
G0 F6000 X122.827 Y91.149
G1 F1200 X158.849 Y127.171 E119.08483
G0 F6000 X158.849 Y127.736
G1 F1200 X122.262 Y91.149 E120.80577
