;FLAVOR:Marlin
;TIME:9771
;Filament used: 6.45619m
;Layer height: 0.2
;MINX:55.36
;MINY:55.349
;MINZ:0.2
;MAXX:164.641
;MAXY:164.651
;MAXZ:31.6
;Generated with Cura_SteamEngine 4.13.1
M140 S55
M105
M190 S55
M104 S205
M105
M109 S205
M82 ;absolute extrusion mode
; Ender 3 Custom Start G-code
G92 E0 ; Reset Extruder
G28 ; Home all axes
G1 Z2.0 F3000 ; Move Z Axis up little to prevent scratching of Heat Bed
G1 X0.1 Y20 Z0.3 F5000.0 ; Move to start position
G1 X0.1 Y200.0 Z0.3 F1500.0 E15 ; Draw the first line
G1 X0.4 Y200.0 Z0.3 F5000.0 ; Move to side a little
G1 X0.4 Y20 Z0.3 F1500.0 E30 ; Draw the second line
G92 E0 ; Reset Extruder
G1 Z2.0 F3000 ; Move Z Axis up little to prevent scratching of Heat Bed
G1 X5 Y20 Z0.3 F5000.0 ; Move over to prevent blob squish
G92 E0
G92 E0
G1 F1500 E-6.5
;LAYER_COUNT:158
;LAYER:0
M107
;MESH:camera_socket.stl
G0 F6000 X77.519 Y117.034 Z0.2
;TYPE:WALL-INNER
G1 F1500 E0
G1 F1200 X78.027 Y116.824 E0.01828
G1 X78.464 Y116.489 E0.0366
G1 X78.799 Y116.052 E0.05491
G1 X79.009 Y115.544 E0.07319
G1 X79.08 Y115 E0.09144
G1 X79.009 Y114.456 E0.10969
G1 X78.799 Y113.948 E0.12797
G1 X78.464 Y113.511 E0.14628
G1 X78.027 Y113.176 E0.1646
G1 X77.519 Y112.966 E0.18288
G1 X76.975 Y112.895 E0.20113
G1 X76.431 Y112.966 E0.21938
G1 X75.923 Y113.176 E0.23766
G1 X75.486 Y113.511 E0.25597
G1 X75.151 Y113.948 E0.27429
G1 X74.941 Y114.456 E0.29257
G1 X74.87 Y115 E0.31082
G1 X74.941 Y115.544 E0.32906
G1 X75.151 Y116.052 E0.34735
G1 X75.486 Y116.489 E0.36566
G1 X75.923 Y116.824 E0.38397
G1 X76.431 Y117.034 E0.40226
G1 X76.975 Y117.105 E0.4205
G1 X77.519 Y117.034 E0.43875
G0 F6000 X77.415 Y116.644
;TYPE:WALL-OUTER
G1 F1200 X77.826 Y116.474 E0.45354
G1 X78.179 Y116.204 E0.46833
G1 X78.449 Y115.851 E0.48311
G1 X78.619 Y115.44 E0.4979
G1 X78.677 Y115 E0.51266
G1 X78.619 Y114.56 E0.52742
G1 X78.449 Y114.149 E0.54222
G1 X78.179 Y113.796 E0.557
G1 X77.826 Y113.526 E0.57178
G1 X77.415 Y113.356 E0.58657
G1 X76.975 Y113.298 E0.60133
G1 X76.535 Y113.356 E0.61609
G1 X76.124 Y113.526 E0.63089
G1 X75.771 Y113.796 E0.64567
G1 X75.501 Y114.149 E0.66045
G1 X75.331 Y114.56 E0.67524
G1 X75.273 Y115 E0.69
G1 X75.331 Y115.44 E0.70477
G1 X75.501 Y115.851 E0.71956
G1 X75.771 Y116.204 E0.73434
G1 X76.124 Y116.474 E0.74912
G1 X76.535 Y116.644 E0.76391
G1 X76.975 Y116.702 E0.77868
G1 X77.415 Y116.644 E0.79344
G0 F6000 X77.528 Y117.069
G1 F1500 E-5.70656
G0 F6000 X78.35 Y116.375
G0 X78.658 Y115.971
G0 X78.852 Y115.502
G0 X78.919 Y115
G0 X78.852 Y114.498
G0 X78.658 Y114.029
G0 X78.35 Y113.625
G0 X76.975 Y112.703
G0 X76.975 Y114.171
G0 X76.975 Y105.829
G0 X76.975 Y107.297
G0 X77.519 Y107.034
;TYPE:WALL-INNER
G1 F1500 E0.79344
G1 F1200 X78.027 Y106.824 E0.81172
G1 X78.464 Y106.489 E0.83003
G1 X78.799 Y106.052 E0.84835
G1 X79.009 Y105.544 E0.86663
G1 X79.08 Y105 E0.88488
G1 X79.009 Y104.456 E0.90312
G1 X78.799 Y103.948 E0.92141
G1 X78.464 Y103.511 E0.93972
G1 X78.027 Y103.176 E0.95804
G1 X77.519 Y102.966 E0.97632
G1 X76.975 Y102.895 E0.99457
G1 X76.431 Y102.966 E1.01281
G1 X75.923 Y103.176 E1.0311
G1 X75.486 Y103.511 E1.04941
G1 X75.151 Y103.948 E1.06772
G1 X74.941 Y104.456 E1.08601
G1 X74.87 Y105 E1.10425
G1 X74.941 Y105.544 E1.1225
G1 X75.151 Y106.052 E1.14078
G1 X75.486 Y106.489 E1.1591
G1 X75.923 Y106.824 E1.17741
G1 X76.431 Y107.034 E1.19569
G1 X76.975 Y107.105 E1.21394
G1 X77.519 Y107.034 E1.23219
G0 F6000 X77.415 Y106.644
;TYPE:WALL-OUTER
G1 F1200 X77.826 Y106.474 E1.24698
G1 X78.179 Y106.204 E1.26176
G1 X78.449 Y105.851 E1.27654
G1 X78.619 Y105.44 E1.29134
G1 X78.677 Y105 E1.3061
G1 X78.619 Y104.56 E1.32086
G1 X78.449 Y104.149 E1.33565
G1 X78.179 Y103.796 E1.35043
G1 X77.826 Y103.526 E1.36522
G1 X77.415 Y103.356 E1.38001
G1 X76.975 Y103.298 E1.39477
G1 X76.535 Y103.356 E1.40953
G1 X76.124 Y103.526 E1.42432
G1 X75.771 Y103.796 E1.43911
G1 X75.501 Y104.149 E1.45389
G1 X75.331 Y104.56 E1.46868
G1 X75.273 Y105 E1.48344
G1 X75.331 Y105.44 E1.4982
G1 X75.501 Y105.851 E1.513
G1 X75.771 Y106.204 E1.52778
G1 X76.124 Y106.474 E1.54256
G1 X76.535 Y106.644 E1.55735
G1 X76.975 Y106.702 E1.57211
G1 X77.415 Y106.644 E1.58687
G0 F6000 X77.528 Y107.069
G1 F1500 E-4.91313
G0 F6000 X78.965 Y106.149
G0 X77.695 Y105.415
G0 X80.96 Y105.415
G0 X81.028 Y100.453
G0 X120.922 Y100.453
G0 X120.99 Y105.415
G0 X124.255 Y105.415
G0 X122.985 Y106.149
G0 X123.273 Y106.3
G0 X124.975 Y107.105
;TYPE:WALL-INNER
G1 F1500 E1.58687
G1 F1200 X125.519 Y107.034 E1.60512
G1 X126.027 Y106.824 E1.6234
G1 X126.464 Y106.489 E1.64172
G1 X126.799 Y106.052 E1.66003
G1 X127.009 Y105.544 E1.67831
G1 X127.08 Y105 E1.69656
G1 X127.009 Y104.456 E1.71481
G1 X126.799 Y103.948 E1.73309
G1 X126.464 Y103.511 E1.75141
G1 X126.027 Y103.176 E1.76972
G1 X125.519 Y102.966 E1.788
G1 X124.975 Y102.895 E1.80625
G1 X124.431 Y102.966 E1.8245
G1 X123.923 Y103.176 E1.84278
G1 X123.486 Y103.511 E1.86109
G1 X123.151 Y103.948 E1.87941
G1 X122.941 Y104.456 E1.89769
G1 X122.87 Y105 E1.91594
G1 X122.941 Y105.544 E1.93418
G1 X123.151 Y106.052 E1.95247
G1 X123.486 Y106.489 E1.97078
G1 X123.923 Y106.824 E1.98909
G1 X124.431 Y107.034 E2.00738
G1 X124.975 Y107.105 E2.02562
G0 F6000 X124.975 Y106.702
;TYPE:WALL-OUTER
G1 F1200 X125.415 Y106.644 E2.04039
G1 X125.826 Y106.474 E2.05518
G1 X126.179 Y106.204 E2.06996
G1 X126.449 Y105.851 E2.08474
G1 X126.619 Y105.44 E2.09953
G1 X126.677 Y105 E2.1143
G1 X126.619 Y104.56 E2.12906
G1 X126.449 Y104.149 E2.14385
G1 X126.179 Y103.796 E2.15863
G1 X125.826 Y103.526 E2.17341
G1 X125.415 Y103.356 E2.18821
G1 X124.975 Y103.298 E2.20297
G1 X124.535 Y103.356 E2.21773
G1 X124.124 Y103.526 E2.23252
G1 X123.771 Y103.796 E2.2473
G1 X123.501 Y104.149 E2.26208
G1 X123.331 Y104.56 E2.27688
G1 X123.273 Y105 E2.29164
G1 X123.331 Y105.44 E2.3064
G1 X123.501 Y105.851 E2.32119
G1 X123.771 Y106.204 E2.33597
G1 X124.124 Y106.474 E2.35076
G1 X124.535 Y106.644 E2.36555
G1 X124.975 Y106.702 E2.38031
G0 F6000 X124.975 Y107.142
G1 F1500 E-4.11969
G0 F6000 X124.975 Y105.829
G0 X124.975 Y114.171
G0 X124.975 Y112.703
G0 X123.6 Y113.625
G0 X123.292 Y114.029
G0 X123.098 Y114.498
G0 X123.031 Y115
G0 X123.098 Y115.502
G0 X123.292 Y115.971
G0 X123.541 Y116.297
G0 X124.431 Y117.034
;TYPE:WALL-INNER
G1 F1500 E2.38031
G1 F1200 X124.975 Y117.105 E2.39856
G1 X125.519 Y117.034 E2.4168
G1 X126.027 Y116.824 E2.43509
G1 X126.464 Y116.489 E2.4534
G1 X126.799 Y116.052 E2.47171
G1 X127.009 Y115.544 E2.49
G1 X127.08 Y115 E2.50824
G1 X127.009 Y114.456 E2.52649
G1 X126.799 Y113.948 E2.54477
G1 X126.464 Y113.511 E2.56309
G1 X126.027 Y113.176 E2.5814
G1 X125.519 Y112.966 E2.59969
G1 X124.975 Y112.895 E2.61793
G1 X124.431 Y112.966 E2.63618
G1 X123.923 Y113.176 E2.65446
G1 X123.486 Y113.511 E2.67278
G1 X123.151 Y113.948 E2.69109
G1 X122.941 Y114.456 E2.70937
G1 X122.87 Y115 E2.72762
G1 X122.941 Y115.544 E2.74587
G1 X123.151 Y116.052 E2.76415
G1 X123.486 Y116.489 E2.78246
G1 X123.923 Y116.824 E2.80078
G1 X124.431 Y117.034 E2.81906
G0 F6000 X124.535 Y116.644
;TYPE:WALL-OUTER
G1 F1200 X124.975 Y116.702 E2.83382
G1 X125.415 Y116.644 E2.84858
G1 X125.826 Y116.474 E2.86338
G1 X126.179 Y116.204 E2.87816
G1 X126.449 Y115.851 E2.89294
G1 X126.619 Y115.44 E2.90773
G1 X126.677 Y115 E2.92249
G1 X126.619 Y114.56 E2.93725
G1 X126.449 Y114.149 E2.95205
G1 X126.179 Y113.796 E2.96683
G1 X125.826 Y113.526 E2.98161
G1 X125.415 Y113.356 E2.9964
G1 X124.975 Y113.298 E3.01116
G1 X124.535 Y113.356 E3.02593
G1 X124.124 Y113.526 E3.04072
G1 X123.771 Y113.796 E3.0555
G1 X123.501 Y114.149 E3.07028
G1 X123.331 Y114.56 E3.08508
G1 X123.273 Y115 E3.09984
G1 X123.331 Y115.44 E3.1146
G1 X123.501 Y115.851 E3.12939
G1 X123.771 Y116.204 E3.14417
G1 X124.124 Y116.474 E3.15895
G1 X124.535 Y116.644 E3.17375
G0 F6000 X124.422 Y117.069
G1 F1500 E-3.32625
G0 F6000 X123.826 Y116.99
G0 X122.365 Y116.99
G0 X122.175 Y120.8
;TYPE:WALL-INNER
G1 F1500 E3.17375
G1 F1200 X122.175 Y99.2 E3.89217
G1 X79.775 Y99.2 E5.3024
G1 X79.775 Y120.8 E6.02081
G1 X122.175 Y120.8 E7.43104
G0 F6000 X121.775 Y120.4
;TYPE:WALL-OUTER
G1 F1200 X121.775 Y99.6 E8.12285
G1 X80.175 Y99.6 E9.50648
G1 X80.175 Y120.4 E10.19829
G1 X121.775 Y120.4 E11.58191
G1 F1500 E5.08191
G0 F6000 X122.075 Y120.4
G0 X111.122 Y120.99
G0 X111.122 Y119.535
G0 X113.94 Y164.471
G0 X113.845 Y163
G0 X111.122 Y163.387
;TYPE:WALL-INNER
G1 F1500 E11.58191
G1 F1200 X106.534 Y163.288 E11.73454
G1 X101.95 Y162.794 E11.88789
G1 X97.451 Y161.91 E12.04039
G1 X93.055 Y160.649 E12.1925
G1 X88.741 Y158.996 E12.34615
G1 X84.616 Y156.993 E12.49867
G1 X80.665 Y154.637 E12.65167
G1 X76.935 Y151.95 E12.80457
G1 X73.458 Y148.961 E12.95707
G1 X70.232 Y145.665 E13.11047
G1 X67.327 Y142.135 E13.26252
G1 X64.718 Y138.341 E13.41567
G1 X62.448 Y134.344 E13.56855
G1 X60.528 Y130.161 E13.72163
G1 X58.98 Y125.842 E13.87423
G1 X57.807 Y121.403 E14.02694
G1 X57.02 Y116.878 E14.1797
G1 X56.625 Y112.301 E14.3325
G1 X56.625 Y107.699 E14.48556
G1 X57.02 Y103.122 E14.63836
G1 X57.808 Y98.592 E14.79129
G1 X58.98 Y94.158 E14.94383
G1 X60.528 Y89.839 E15.09643
G1 X62.448 Y85.656 E15.24952
G1 X64.718 Y81.659 E15.4024
G1 X67.327 Y77.865 E15.55555
G1 X70.232 Y74.335 E15.7076
G1 X73.458 Y71.039 E15.86099
G1 X76.935 Y68.05 E16.0135
G1 X80.665 Y65.363 E16.1664
G1 X84.616 Y63.007 E16.3194
G1 X88.741 Y61.004 E16.47191
G1 X93.056 Y59.351 E16.6256
G1 X97.451 Y58.09 E16.77768
G1 X101.95 Y57.206 E16.93018
G1 X106.534 Y56.712 E17.08352
G1 X111.122 Y56.613 E17.23616
G1 X115.715 Y56.91 E17.38924
G1 X120.252 Y57.598 E17.54187
G1 X124.717 Y58.675 E17.69463
G1 X129.068 Y60.131 E17.84723
G1 X133.299 Y61.964 E18.0006
G1 X137.336 Y64.143 E18.15318
G1 X141.179 Y66.667 E18.3061
G1 X144.777 Y69.499 E18.45839
G1 X148.138 Y72.651 E18.61165
G1 X151.215 Y76.078 E18.76483
G1 X153.97 Y79.735 E18.91712
G1 X156.415 Y83.64 E19.07036
G1 X158.506 Y87.724 E19.22296
G1 X160.239 Y91.973 E19.37559
G1 X161.605 Y96.367 E19.52863
G1 X162.585 Y100.851 E19.68129
G1 X163.176 Y105.4 E19.83386
G1 X163.374 Y110 E19.987
G1 X163.176 Y114.598 E20.14007
G1 X162.585 Y119.149 E20.29271
G1 X161.605 Y123.633 E20.44537
G1 X160.239 Y128.027 E20.59841
G1 X158.506 Y132.276 E20.75104
G1 X156.415 Y136.36 E20.90364
G1 X153.97 Y140.265 E21.05688
G1 X151.215 Y143.922 E21.20916
G1 X148.138 Y147.349 E21.36235
G1 X144.777 Y150.501 E21.5156
G1 X141.179 Y153.333 E21.6679
G1 X137.336 Y155.857 E21.82082
G1 X133.299 Y158.036 E21.9734
G1 X129.068 Y159.869 E22.12676
G1 X124.717 Y161.325 E22.27936
G1 X120.252 Y162.402 E22.43213
G1 X115.715 Y163.09 E22.58476
G1 X111.122 Y163.387 E22.73784
G0 F6000 X111.128 Y163.787
;TYPE:WALL-OUTER
G1 F1200 X106.506 Y163.688 E22.8916
G1 X101.899 Y163.191 E23.04572
G1 X97.358 Y162.299 E23.19964
G1 X92.918 Y161.025 E23.35328
G1 X88.583 Y159.364 E23.50768
G1 X84.424 Y157.345 E23.66145
G1 X80.445 Y154.972 E23.81554
G1 X76.692 Y152.269 E23.96937
G1 X73.181 Y149.251 E24.12336
G1 X69.936 Y145.935 E24.27767
G1 X67.003 Y142.371 E24.43119
G1 X64.379 Y138.555 E24.58522
G1 X62.091 Y134.526 E24.73933
G1 X60.157 Y130.313 E24.89351
G1 X58.598 Y125.963 E25.0472
G1 X57.416 Y121.491 E25.20105
G1 X56.622 Y116.924 E25.35523
G1 X56.225 Y112.323 E25.50883
G1 X56.225 Y107.677 E25.66335
G1 X56.622 Y103.076 E25.81695
G1 X57.417 Y98.504 E25.9713
G1 X58.598 Y94.037 E26.12498
G1 X60.157 Y89.687 E26.27867
G1 X62.091 Y85.474 E26.43285
G1 X64.379 Y81.445 E26.58696
G1 X67.003 Y77.629 E26.74099
G1 X69.936 Y74.065 E26.89451
G1 X73.181 Y70.749 E27.04882
G1 X76.692 Y67.731 E27.20281
G1 X80.445 Y65.028 E27.35664
G1 X84.424 Y62.655 E27.51073
G1 X88.583 Y60.636 E27.6645
G1 X92.919 Y58.975 E27.81893
G1 X97.358 Y57.701 E27.97254
G1 X101.899 Y56.809 E28.12646
G1 X106.506 Y56.312 E28.28058
G1 X111.128 Y56.213 E28.43434
G1 X115.754 Y56.512 E28.58852
G1 X120.337 Y57.207 E28.7427
G1 X124.822 Y58.289 E28.89615
G1 X129.214 Y59.758 E29.05018
G1 X133.474 Y61.604 E29.2046
G1 X137.541 Y63.799 E29.35831
G1 X141.409 Y66.339 E29.51222
G1 X145.046 Y69.202 E29.66617
G1 X148.422 Y72.368 E29.82011
G1 X151.522 Y75.821 E29.97445
G1 X154.3 Y79.508 E30.12799
G1 X156.763 Y83.442 E30.28236
G1 X158.869 Y87.555 E30.43605
G1 X160.618 Y91.843 E30.59008
G1 X161.992 Y96.265 E30.74409
G1 X162.98 Y100.784 E30.89794
G1 X163.575 Y105.367 E31.05166
G1 X163.775 Y110 E31.20589
G1 X163.575 Y114.631 E31.36006
G1 X162.98 Y119.216 E31.51384
G1 X161.992 Y123.735 E31.66769
G1 X160.618 Y128.157 E31.82171
G1 X158.869 Y132.445 E31.97573
G1 X156.763 Y136.558 E32.12942
G1 X154.3 Y140.492 E32.2838
G1 X151.522 Y144.179 E32.43734
G1 X148.422 Y147.632 E32.59168
G1 X145.046 Y150.798 E32.74562
G1 X141.409 Y153.661 E32.89957
G1 X137.541 Y156.201 E33.05347
G1 X133.474 Y158.396 E33.20719
G1 X129.214 Y160.242 E33.36161
G1 X124.822 Y161.711 E33.51564
G1 X120.337 Y162.793 E33.66909
G1 X115.754 Y163.488 E33.82326
G1 X111.128 Y163.787 E33.97745
G0 F6000 X111.119 Y163.348
G0 X111.105 Y162.997
;TYPE:SKIN
G1 F1200 X106.56 Y162.898 E34.12865
G1 X102.001 Y162.407 E34.28116
G1 X97.548 Y161.532 E34.4321
G1 X93.178 Y160.279 E34.5833
G1 X88.897 Y158.638 E34.73579
G1 X84.798 Y156.648 E34.88734
G1 X80.879 Y154.311 E35.03911
G1 X77.179 Y151.646 E35.19077
G1 X73.728 Y148.679 E35.34214
G1 X70.518 Y145.399 E35.49478
G1 X67.642 Y141.905 E35.6453
G1 X65.046 Y138.129 E35.7977
G1 X62.796 Y134.167 E35.94925
G1 X60.886 Y130.005 E36.10156
G1 X59.354 Y125.73 E36.2526
G1 X58.187 Y121.315 E36.40449
G1 X57.406 Y116.823 E36.55613
G1 X57.015 Y112.301 E36.70709
G1 X57.015 Y107.699 E36.86016
G1 X57.406 Y103.177 E37.01112
G1 X58.189 Y98.675 E37.16311
G1 X59.355 Y94.266 E37.31479
G1 X60.886 Y89.995 E37.4657
G1 X62.796 Y85.833 E37.61801
G1 X65.046 Y81.871 E37.76955
G1 X67.642 Y78.095 E37.92196
G1 X70.518 Y74.601 E38.07247
G1 X73.728 Y71.321 E38.22512
G1 X77.179 Y68.354 E38.37649
G1 X80.879 Y65.689 E38.52815
G1 X84.798 Y63.352 E38.67991
G1 X88.897 Y61.362 E38.83146
G1 X93.18 Y59.721 E38.98401
G1 X97.549 Y58.468 E39.13518
G1 X102.001 Y57.593 E39.28609
G1 X106.56 Y57.102 E39.4386
G1 X111.105 Y57.003 E39.5898
G1 X115.678 Y57.3 E39.74222
G1 X120.182 Y57.982 E39.89373
G1 X124.611 Y59.051 E40.04527
G1 X128.922 Y60.493 E40.19647
G1 X133.138 Y62.32 E40.34929
G1 X137.134 Y64.476 E40.50031
G1 X140.949 Y66.983 E40.65214
G1 X144.519 Y69.792 E40.80323
G1 X147.863 Y72.929 E40.95573
G1 X150.918 Y76.331 E41.10781
G1 X153.646 Y79.952 E41.2586
G1 X156.079 Y83.84 E41.41115
G1 X158.151 Y87.886 E41.56234
G1 X159.875 Y92.114 E41.7142
G1 X161.226 Y96.462 E41.86564
G1 X162.202 Y100.926 E42.01762
G1 X162.786 Y105.417 E42.16825
G1 X162.984 Y110 E42.32082
G1 X162.786 Y114.578 E42.47323
G1 X162.202 Y119.074 E42.62402
G1 X161.226 Y123.538 E42.776
G1 X159.875 Y127.886 E42.92744
G1 X158.151 Y132.114 E43.0793
G1 X156.079 Y136.16 E43.23049
G1 X153.646 Y140.048 E43.38304
G1 X150.918 Y143.669 E43.53383
G1 X147.863 Y147.071 E43.68591
G1 X144.519 Y150.208 E43.83841
G1 X140.949 Y153.017 E43.9895
G1 X137.134 Y155.524 E44.14133
G1 X133.138 Y157.68 E44.29235
G1 X128.922 Y159.507 E44.44517
G1 X124.611 Y160.949 E44.59636
G1 X120.182 Y162.018 E44.7479
G1 X115.678 Y162.7 E44.89942
G1 X111.105 Y162.997 E45.05183
G1 F1500 E38.55183
G0 F6000 X111.115 Y163.276
G0 X115.694 Y162.88
G0 X115.916 Y164.338
G0 X115.694 Y119.535
G0 X115.694 Y120.99
G0 X122.285 Y120.94
G1 F1500 E45.05183
G0 F6000 X122.565 Y121.19
G1 F1200 X122.565 Y115.655 E45.23593
G1 X122.81 Y116.249 E45.2573
G1 X123.207 Y116.768 E45.27903
G1 X123.726 Y117.165 E45.30077
G1 X124.33 Y117.414 E45.3225
G1 X124.975 Y117.499 E45.34413
G1 X125.62 Y117.414 E45.36577
G1 X126.224 Y117.165 E45.3875
G1 X126.743 Y116.768 E45.40923
G1 X127.14 Y116.249 E45.43097
G1 X127.389 Y115.645 E45.4527
G1 X127.474 Y115 E45.47434
G1 X127.389 Y114.355 E45.49597
G1 X127.14 Y113.751 E45.5177
G1 X126.743 Y113.232 E45.53944
G1 X126.224 Y112.835 E45.56117
G1 X125.62 Y112.586 E45.5829
G1 X124.975 Y112.501 E45.60454
G1 X124.33 Y112.586 E45.62617
G1 X123.726 Y112.835 E45.6479
G1 X123.207 Y113.232 E45.66964
G1 X122.81 Y113.751 E45.69137
G1 X122.565 Y114.345 E45.71274
G1 X122.565 Y105.655 E46.00177
G1 X122.81 Y106.249 E46.02314
G1 X123.207 Y106.768 E46.04488
G1 X123.726 Y107.165 E46.06661
G1 X124.33 Y107.414 E46.08834
G1 X124.975 Y107.499 E46.10998
G1 X125.62 Y107.414 E46.13162
G1 X126.224 Y107.165 E46.15334
G1 X126.743 Y106.768 E46.17508
